.storybook/public/story-assets/icons-link_1_64.svg

<svg width="64" height="64" viewBox="0 0 64 64" fill="none" xmlns="http://www.w3.org/2000/svg">
<path fill-rule="evenodd" clip-rule="evenodd" d="M17.8052 5.56417C8.72538 10.4499 2.45154 19.8769 2.02351 30.8052H17.8052V5.56417ZM2.01074 32.8052C2.30304 43.8988 8.61764 53.4921 17.8052 58.4358V32.8052H2.01074ZM19.8052 59.4177C23.5312 61.0775 27.6579 62 32.0001 62C48.2995 62 61.5628 49.0015 61.9895 32.8052H19.8052V59.4177ZM61.9768 30.8052C61.3495 14.7905 48.1685 2 32.0001 2C27.6579 2 23.5312 2.92253 19.8052 4.58228V30.8052H61.9768Z" fill="#848894"/>
</svg>

<svg xmlns="http://www.w3.org/2000/svg" width="64" height="64" fill="none"><path fill="#848894" fill-rule="evenodd" d="M17.805 5.564C8.725 10.45 2.452 19.877 2.024 30.805h15.781zM2.011 32.805c.292 11.094 6.607 20.687 15.794 25.63v-25.63zm17.794 26.613A29.9 29.9 0 0 0 32 62c16.3 0 29.563-12.998 29.99-29.195H19.804zm42.172-28.613C61.35 14.791 48.169 2 32 2c-4.342 0-8.469.923-12.195 2.582v26.223z" clip-rule="evenodd"/></svg>
